X: 5397
T: Buddy MacMaster's Fancy
R: jig
M: 6/8
K: Amajor
|:ABc BAB|cAF EAF|ECA, FAB|cBB BAF|
ABc BAB|cAF EAF|ECE FAB|1 cAA A3:|2 cAA A2f||
|:ece aga|~f3 ecA|ABc BAB|cBB B2f|ece aga|
fdf ecA|1 EFA BAB|cAA A2f:|2 Edc BAB|cAA A3||

